X: 13628
T: Foghorn
R: hornpipe
M: 4/4
K: Dmajor
dB|A^GAF DFAc|dcec dBAF|GGBG FFAF|FEGE DCB,A,|
A2 AF DFAc|dcec Acef|gffe eddc|d2 f2 d2:|
cd|e^dec Acef|gfaf d2 cd|BdAd BdAd|Bgfe dcdB|
A^GAF DFAc|dcec Acef|gffe eddc|d2 f2 d2:|

